svg/transport/scooter_fill.svg

<?xml version="1.0" encoding="UTF-8"?>
<svg width="24px" height="24px" viewBox="0 0 24 24" version="1.1" xmlns="http://www.w3.org/2000/svg" xmlns:xlink="http://www.w3.org/1999/xlink">
    <title>scooter_fill</title>
    <g id="页面-1" stroke="none" stroke-width="1" fill="none" fill-rule="evenodd">
        <g id="Transport" transform="translate(-864.000000, -48.000000)" fill-rule="nonzero">
            <g id="scooter_fill" transform="translate(864.000000, 48.000000)">
                 <path d="M24,0 L24,24 L0,24 L0,0 L24,0 Z M12.5934901,23.257841 L12.5819402,23.2595131 L12.5108777,23.2950439 L12.4918791,23.2987469 L12.4918791,23.2987469 L12.4767152,23.2950439 L12.4056548,23.2595131 C12.3958229,23.2563662 12.3870493,23.2590235 12.3821421,23.2649074 L12.3780323,23.275831 L12.360941,23.7031097 L12.3658947,23.7234994 L12.3769048,23.7357139 L12.4804777,23.8096931 L12.4953491,23.8136134 L12.4953491,23.8136134 L12.5071152,23.8096931 L12.6106902,23.7357139 L12.6232938,23.7196733 L12.6232938,23.7196733 L12.6266527,23.7031097 L12.609561,23.275831 C12.6075724,23.2657013 12.6010112,23.2592993 12.5934901,23.257841 L12.5934901,23.257841 Z M12.8583906,23.1452862 L12.8445485,23.1473072 L12.6598443,23.2396597 L12.6498822,23.2499052 L12.6498822,23.2499052 L12.6471943,23.2611114 L12.6650943,23.6906389 L12.6699349,23.7034178 L12.6699349,23.7034178 L12.678386,23.7104931 L12.8793402,23.8032389 C12.8914285,23.8068999 12.9022333,23.8029875 12.9078286,23.7952264 L12.9118235,23.7811639 L12.8776777,23.1665331 C12.8752882,23.1545897 12.8674102,23.1470016 12.8583906,23.1452862 L12.8583906,23.1452862 Z M12.1430473,23.1473072 C12.1332178,23.1423925 12.1221763,23.1452606 12.1156365,23.1525954 L12.1099173,23.1665331 L12.0757714,23.7811639 C12.0751323,23.7926639 12.0828099,23.8018602 12.0926481,23.8045676 L12.108256,23.8032389 L12.3092106,23.7104931 L12.3186497,23.7024347 L12.3186497,23.7024347 L12.3225043,23.6906389 L12.340401,23.2611114 L12.337245,23.2485176 L12.337245,23.2485176 L12.3277531,23.2396597 L12.1430473,23.1473072 Z" id="MingCute" fill-rule="nonzero"></path>
                <path d="M6,16 C7.65685,16 9,17.3431 9,19 C9,20.6569 7.65685,22 6,22 C4.34315,22 3,20.6569 3,19 C3,17.3431 4.34315,16 6,16 Z M19,16 C20.6569,16 22,17.3431 22,19 C22,20.6569 20.6569,22 19,22 C17.3431,22 16,20.6569 16,19 C16,17.3431 17.3431,16 19,16 Z M18,2.00001 C18.5523,2.00001 19,2.44772 19,3.00001 C19,3.55229 18.5523,4.00001 18,4.00001 L17.3092,4.00001 L19.9613,13.7243 C20.1365,14.3668 19.6529,15.00001 18.9869,15.00001 L18.2305,15.00001 C17.2423,15.00001 16.3389,15.5583 15.8969,16.4422 C15.726,16.7841 15.3766,17.00001 14.9944,17.00001 L10.8284,17.00001 C9.68524,17.00001 8.92619,16.3404 8.17157,15.5858 C7.7965,15.2107 7.28779,15.00001 6.75736,15.00001 L5,15.00001 C4.44772,15.00001 4,14.5523 4,14.00001 C4,13.4477 4.44772,13.00001 5,13.00001 L6.75736,13.00001 C7.81822,13.00001 8.83564,13.4214 9.58579,14.1716 L9.87642813,14.4754741 C10.1404846,14.7483901 10.4301455,15.00001 10.8284,15.00001 L14.4309,15.00001 C15.183,13.9042 16.3756,13.184 17.6991,13.0307 L15.2362,4.00001 L14,4.00001 C13.4477,4.00001 13,3.55229 13,3.00001 C13,2.44772 13.4477,2.00001 14,2.00001 L18,2.00001 Z" id="形状" fill="#09244B"></path>
            </g>
        </g>
    </g>
</svg>

<svg xmlns="http://www.w3.org/2000/svg" width="24" height="24"><g fill="none" fill-rule="nonzero"><path d="M24 0v24H0V0h24ZM12.593 23.258l-.011.002-.071.035-.02.004-.014-.004-.071-.035c-.01-.004-.019-.001-.024.005l-.004.01-.017.428.005.02.01.013.104.074.015.004.012-.004.104-.074.012-.016.004-.017-.017-.427c-.002-.01-.009-.017-.017-.018Zm.265-.113-.013.002-.185.093-.01.01-.003.011.018.43.005.012.008.007.201.093c.012.004.023 0 .029-.008l.004-.014-.034-.614c-.003-.012-.01-.02-.02-.022Zm-.715.002a.023.023 0 0 0-.027.006l-.006.014-.034.614c0 .012.007.02.017.024l.015-.002.201-.093.01-.008.004-.011.017-.43-.003-.012-.01-.01-.184-.092Z"/><path fill="#09244B" d="M6 16a3 3 0 1 1 0 6 3 3 0 0 1 0-6Zm13 0a3 3 0 1 1 0 6 3 3 0 0 1 0-6ZM18 2a1 1 0 1 1 0 2h-.69l2.651 9.724A1.01 1.01 0 0 1 18.987 15h-.756a2.61 2.61 0 0 0-2.334 1.442c-.171.342-.52.558-.903.558h-4.166c-1.143 0-1.902-.66-2.656-1.414A2 2 0 0 0 6.757 15H5a1 1 0 1 1 0-2h1.757a4 4 0 0 1 2.829 1.172l.29.303c.264.273.554.525.952.525h3.603a4.61 4.61 0 0 1 3.268-1.97L15.236 4H14a1 1 0 1 1 0-2h4Z"/></g></svg>
